X:3
T:Black velvet band
C:Trad.
O:Ireland
D:a.o. The Dubliners, `Original Dubliners'
Z:Bert Van Vreckem <http://flanders.blackmill.net/music/>
M:3/4
L:1/4
K:E
B/B/|"E"B2 B/B/|GAB|A(G(G)|G2)F/F/|EFG|"A"EDC|"B7"(B,3|B,2)B/A/|
w:In a neat litt-le town they call Bel-fast__ an ap-pren-tice to trade I was bound_ and it's
"E"G/(G/ G)G|(B,C)D|"C#m"E2F|G2E/E/|"B7"FGA|DEF|("E"E3|E2) B/B/|
w:ma-ny_ an hour's_ sweet hap-i-ness have I spent in that neat lit-tle town_ till a
"E"B2B|GAB|A2G|G2F|EFG|"A"EDC|"B7"(B,3|B,2)B/A/|
w:sad mis-for-tune came o-ver me which caused me to stray from the land_ far a-
"E"G>G G|B,CD|("C#m"E2F)|G2E|"B7"FGA|DEF|("E"E3|E2)
w:way from my friends and re-la-_tions be-trayed by the black vel-vet band._
"^Chorus"B|"E"B2 B|(GA)B|A(G(G)|G2)F|EFG|"A"EDC|"B7"(B,3|B,2)B/A/|
w:Her eyes they shone_ like dia-monds.__ I thought her the queen of the land_ and her
"E"G>G G|B,CD|("C#m"E2F)|G2E|"B7"FGA|DEF|("E"E3|E2)|]
w:hair it hung o-ver her shoul-_der tied up with a black vel-vet band._
W:2. Well, I was out strolling one evening
W:Not meaning to go very far
W:When I met with a pretty young damsel
W:Who was selling her trade in the bar.
W:When I watched, she took from a customer
W:And slipped it right into my hand
W:Then the law it came and arrested me
W:Bad luck to the black velvet band.
W:
W:3. Next morning before judge and jury
W:For a trial I had to appear
W:And the judge, he said, "Me young fellows...
W:The case against you is quite clear
W:And seven long years is your sentence
W:You're going to Van Dieman's Land
W:Far away from your friends and relations
W:To follow the black velvet band."
W:
W:4. So come all you jolly young fellows
W:I'd have you take warning by me
W:Whenever you're out on the liquor, me lads,
W:Beware of the pretty colleen.
W:She'll fill you with whiskey and porter
W:Until you're not able to stand
W:And the very next thing that you'll know, me lads,
W:You're landed in Van Dieman's Land.

